X: 249
T: 250. Ein feste Burg ist unser Gott
N: Derived from chor250.krn
C: Johann Sebastian Bach
%%abc-version 2.0
%%abcx-abcm2ps-target-version 5.9.1 (29 Sep 2008)
%%abc-creator hum2abc beta
%%abcx-conversion-date 2019/03/11 17:28:19
%%abc-edited-by Craig Stuart Sapp
%%humdrum-veritas 1227881806
%%humdrum-veritas-data 1455275377
%%
%%barnumbers 0
L: 1/8
M: C
%%staves [1 2 3 4]
V: 1 clef=treble
V: 2 clef=treble
V: 3 clef=treble-8
V: 4 clef=bass
K: D
[V:1] d2 [I:setbarnb 1]| 
[V:2] A2 | 
[V:3] fe | 
[V:4] DC | 
[V:1] d2d2AB^c2 | 
[V:2] AG FG AF GA | 
[V:3] d2=cBd2e2 | 
[V:4] B,2A,G,F,2E,2 | 
[V:1] dcB2!fermata!A2d2 | 
[V:2] FE DE!fermata!C2F2 | 
[V:3] A2A^G!fermata!A2F^G | 
[V:4] D,2E,2!fermata!A,,2B,,2 | 
[V:1] c2B2A2BA | 
[V:2] EF=G2FED2 | 
[V:3] A2edc2Bc | 
[V:4] C,D,E,2F,2=G,A, | 
[V:1] GFE2!fermata!D2 :|]  
[V:2] D2C2!fermata!A,2 :|]  
[V:3] d2AG!fermata!F2 :|]  
[V:4] B,G,A,A,,!fermata!D,2 :|]  
[V:1] D2 [I:setbarnb 5]| 
[V:2] D2 | 
[V:3] F^G | 
[V:4] D,E, | 
[V:1] A2B2A2^G2 | 
[V:2] CF ED CDB,2 | 
[V:3] Ad cB ef ed | 
[V:4] F,2^G,2A,D,E,2 | 
[V:1] !fermata!A2D2A2Bc | 
[V:2] !fermata!A,2D2D2GG | 
[V:3] !fermata!c2FGA2ee | 
[V:4] !fermata!A,,2B,,2F,2E,A,, | 
[V:1] !fermata!d2c2dc BB | 
[V:2] !fermata!F2F2F/^G/A AG | 
[V:3] !fermata!d2A2Be fe | 
[V:4] !fermata!D,2F,2B,,C, D,E, | 
[V:1] !fermata!A2B2B2A2 | 
[V:2] !fermata!A2=G2G2F2 | 
[V:3] !fermata!c2Bcd2d=c | 
[V:4] !fermata!A,,2E,2B,,C,D,2 | 
[V:1] BAG2!fermata!F2d2 | 
[V:2] F2E2!fermata!^D2F^G | 
[V:3] B2B2!fermata!B2B2 | 
[V:4] ^D,2E,2!fermata!B,,2B,,2 | 
[V:1] c2B2A2BA | 
[V:2] A2=G2G2FE | 
[V:3] e2e2e2dA | 
[V:4] C,=D, E,D, C,A,, D,C, | 
[V:1] GFE2!fermata!D2 |]  
[V:2] D2C2!fermata!A,2 |]  
[V:3] B2EA!fermata!F2 |]  
[V:4] B,,G,,A,,2!fermata!D,2 |]  



